svgs/sharp-regular/champagne-glass.svg

<svg xmlns="http://www.w3.org/2000/svg" viewBox="0 0 320 512"><!--! Font Awesome Pro 6.6.0 by @fontawesome - https://fontawesome.com License - https://fontawesome.com/license (Commercial License) Copyright 2024 Fonticons, Inc. --><path d="M88.4 176l143.1 0 5.4 39.8c6.4 46.7-29.9 88.2-77 88.2s-83.3-41.5-77-88.2L88.4 176zM95 128l10.9-80 108.2 0L225 128 95 128zM64 0L35.5 209.3C26.3 276.6 72 337.4 136 349.7L136 464l-64 0-24 0 0 48 24 0 88 0 88 0 24 0 0-48-24 0-64 0 0-114.3c64-12.3 109.7-73.1 100.5-140.4L256 0 64 0z"/></svg>

<svg xmlns="http://www.w3.org/2000/svg" viewBox="0 0 320 512"><!--! Font Awesome Pro 6.4.2 by @fontawesome - https://fontawesome.com License - https://fontawesome.com/license (Commercial License) Copyright 2023 Fonticons, Inc. --><path d="M88.4 176H231.6l5.4 39.8c6.4 46.7-29.9 88.2-77 88.2s-83.3-41.5-77-88.2L88.4 176zM95 128l10.9-80H214.1L225 128H95zM64 0L35.5 209.3C26.3 276.6 72 337.4 136 349.7V464H72 48v48H72h88 88 24V464H248 184V349.7c64-12.3 109.7-73.1 100.5-140.4L256 0H64z"/></svg>
